public/monogramma.svg

<svg width="46" height="46" viewBox="0 0 46 46" fill="none" xmlns="http://www.w3.org/2000/svg">
<path d="M39.5386 30.8626C39.5386 30.8626 38.4626 29.6258 37.4702 28.6241C36.7956 27.9414 36.0374 27.2251 35.3182 26.4808C34.7998 25.9212 34.2367 25.4008 33.7739 24.9307L32.9767 24.1304L32.1906 23.3414L31.8115 22.9609L32.0066 22.7818L33.6346 21.1421L35.8646 18.9037C36.3273 18.4392 36.7734 17.9747 37.2138 17.5438C38.0333 16.7548 38.0891 16.654 38.3901 16.363C38.8299 15.9362 39.2361 15.4759 39.6055 14.9864C39.8833 14.578 40.1276 14.1476 40.3358 13.6993C40.5577 13.1615 40.7094 12.5973 40.7874 12.0205C40.9665 10.5824 40.6476 9.12624 39.8842 7.89613C39.0558 6.5679 37.786 5.57673 36.2995 5.09808C35.2789 4.81245 34.206 4.77029 33.1663 4.97496C32.1217 5.15693 31.1528 5.64126 30.3787 6.36841C29.3139 7.48763 22.8969 13.8896 22.8189 13.8896L20.8899 11.9533L19.4683 10.5263L17.6341 8.51171L16.3964 7.1071C15.6903 6.41522 14.8623 5.86111 13.9545 5.47303C12.9584 5.1003 11.8846 4.98642 10.8329 5.14199C9.78115 5.29755 8.78569 5.71751 7.93903 6.3628C7.63928 6.60253 7.3544 6.86043 7.08603 7.13507C5.44695 8.77473 5.41352 11.0523 5.36334 12.138C5.15149 15.4565 5.15146 20.1124 5.12359 24.6509C5.12359 27.6672 5.12359 30.7282 5.12359 33.3025C5.12359 37.6786 5.12359 40.7061 5.12359 40.7061C5.12359 40.7061 5.12362 40.7061 4.95079 40.8796C4.77797 41.0531 4.42669 41.3776 4.28174 41.5511L0.0614356 45.7594C0.0614356 44.3156 0.000109744 37.8185 0.0614356 30.8793C0.0614356 27.8798 0.0614356 24.8356 0.0614356 22.0655C0.0614356 20.0173 0.0614356 18.1482 0.0614356 16.5701C0.0614356 14.5107 0.0614356 12.983 0.0614356 12.4122C0.0295314 10.6736 0.322599 8.94436 0.925532 7.31415C1.64026 5.72986 2.63794 4.29032 3.86919 3.06671C5.06418 1.96154 6.47472 1.11736 8.01151 0.587618C10.1922 -0.144834 12.5351 -0.241852 14.7685 0.307812C16.1763 0.557706 17.4621 1.26801 18.4257 2.32802C18.7602 2.66378 19.1338 3.04991 19.5407 3.44724C20.1819 4.04602 20.7561 4.69517 21.2133 5.12607C21.6704 5.55697 23.0586 6.97838 23.0586 6.97838L23.6997 6.34602C23.6997 6.34602 24.2573 5.71366 24.5082 5.45624C24.759 5.19882 25.35 4.49371 25.35 4.49371C25.35 4.49371 26.2309 3.48641 26.5375 3.16743C27.1969 2.46823 27.9674 1.88388 28.8177 1.43824C29.4124 1.12884 30.0337 0.874102 30.6742 0.677157C31.627 0.401232 32.6062 0.226795 33.5955 0.156724C35.7031 0.0157157 37.8081 0.4693 39.6724 1.46621C42.2835 2.8435 44.2849 5.15397 45.2809 7.94091C46.0462 10.1335 46.1757 12.499 45.6544 14.7626C45.5635 15.1642 45.4499 15.5602 45.3143 15.9489C45.3143 15.9489 45.2028 16.2623 45.1638 16.363C45.1129 16.4947 45.0553 16.6236 44.991 16.7492C44.9352 16.8555 44.7847 17.0794 44.7346 17.1577C44.4948 17.4879 43.5192 18.4728 43.5192 18.4728L41.1609 20.5378L38.9978 22.709L38.8696 22.8489L39.3044 23.2854C39.3044 23.2854 40.3748 24.4047 41.0996 25.0426C41.4508 25.3672 41.6571 25.6022 42.0195 25.91C42.3972 26.2552 42.7477 26.6295 43.0676 27.0292C43.4173 27.4932 43.734 27.9812 44.0154 28.4898C44.2996 29.0187 44.5474 29.5665 44.7568 30.1295C45.3997 31.8866 45.6163 33.7721 45.3884 35.6299C45.1606 37.4878 44.495 39.2643 43.4467 40.8125C42.6932 41.9346 41.7497 42.9157 40.6592 43.7112C39.5989 44.4581 38.4127 45.006 37.158 45.3285C36.1801 45.6132 35.1745 45.7914 34.1586 45.8601C34.1586 45.8601 33.3279 45.8881 32.0624 45.8937C31.0254 45.8937 29.6985 45.8937 28.3215 45.8937C26.4929 45.8937 24.5305 45.8937 23.0531 45.8937C21.7262 45.8937 20.7895 45.972 20.5777 45.8937L25.2106 41.2377H27.8699C28.4888 41.2377 29.1522 41.2377 29.8546 41.2377C30.7244 41.2377 31.6164 41.2377 32.4192 41.2377C33.8854 41.1874 34.9893 41.2377 34.9893 41.2377C35.83 41.1464 36.6486 40.9097 37.4089 40.5382C38.4428 39.9677 39.3046 39.1284 39.9039 38.1083C40.5033 37.0882 40.8181 35.9249 40.8153 34.7407C40.7268 33.4566 40.3453 32.2101 39.7003 31.0976" fill="#1D1D1B"/>
</svg>

<svg width="46" height="46" viewBox="0 0 46 46" fill="none" xmlns="http://www.w3.org/2000/svg"><path d="M39.539 30.863s-1.076-1.237-2.069-2.239c-.674-.683-1.433-1.399-2.152-2.143-.518-.56-1.081-1.08-1.544-1.55l-.797-.8-.786-.79-.38-.38.196-.18 1.628-1.639 2.23-2.238c.462-.465.908-.93 1.349-1.36.82-.79.875-.89 1.176-1.181q.66-.641 1.215-1.377.418-.613.73-1.287a6.8 6.8 0 0 0 .452-1.678 6.34 6.34 0 0 0-.903-4.125A6.62 6.62 0 0 0 36.3 5.098a6.8 6.8 0 0 0-3.134-.123 5.43 5.43 0 0 0-2.787 1.393c-1.065 1.12-7.482 7.522-7.56 7.522l-1.93-1.937-1.42-1.427-1.835-2.014-1.238-1.405a8 8 0 0 0-2.442-1.634 6.28 6.28 0 0 0-6.015.89q-.45.36-.853.772c-1.64 1.64-1.672 3.917-1.723 5.003-.212 3.319-.212 7.974-.24 12.513v16.055l-.172.174c-.173.173-.524.498-.67.671L.062 45.76c0-1.443-.06-7.94 0-14.88V12.412a14 14 0 0 1 .865-5.098A14.3 14.3 0 0 1 3.87 3.067 11.7 11.7 0 0 1 8.012.587a12.13 12.13 0 0 1 6.756-.28 6.48 6.48 0 0 1 3.658 2.021c.334.336.708.722 1.115 1.12.64.598 1.215 1.247 1.672 1.678s1.846 1.852 1.846 1.852l.64-.632s.558-.632.81-.89c.25-.257.841-.962.841-.962s.88-1.008 1.188-1.327a8.7 8.7 0 0 1 2.28-1.729 11 11 0 0 1 1.856-.76 14 14 0 0 1 2.922-.521 11.3 11.3 0 0 1 6.076 1.31 11.8 11.8 0 0 1 5.609 6.474c.765 2.193.895 4.558.373 6.822q-.136.602-.34 1.186s-.111.313-.15.414q-.077.198-.173.386c-.056.107-.206.33-.256.409-.24.33-1.216 1.315-1.216 1.315l-2.358 2.065-2.163 2.171-.128.14.434.436s1.07 1.12 1.796 1.758c.35.324.557.56.92.867q.567.519 1.048 1.12.525.696.947 1.46.427.794.742 1.64a11.82 11.82 0 0 1-1.31 10.683 11.6 11.6 0 0 1-2.788 2.898 10.7 10.7 0 0 1-3.501 1.617c-.978.285-1.983.463-3 .532 0 0-.83.028-2.096.034h-9.009c-1.327 0-2.264.078-2.475 0l4.633-4.656h7.208c1.466-.05 2.57 0 2.57 0a7.3 7.3 0 0 0 2.42-.7 6.6 6.6 0 0 0 2.495-2.43c.6-1.02.914-2.183.911-3.367a8.4 8.4 0 0 0-1.115-3.643" fill="#1D1D1B"/></svg>
